!!!!SEGMENT: pl-wtm--iii-41-943_mlynarski-emil--romance-op-3.krn
!!!cenid: 18xx:4268
!!!COM: Młynarski, Emil
!!!COM-rismID: pe50043899
!!!CDT: 1870/07/18-1935/04/05
!!!CNT: Polish
!!!OTL: Romance op. 3
!!!PDT: 1892
!!!AGN:
!!!YEC: Copyright 2022 Narodowy Instytut Fryderyka Chopina (https://polishscores.org)
!!!YEM: License CC-BY-4.0 (https://creativecommons.org/licenses/by/4.0)
!!!SMS-siglum: PL-Wtm
!!!SMS-shelfmark: III.41.943
!!!SMS-shelfwork: W
!!!SMS-variant:
!!!SMS-altvar:
!!!NIFC-rismSourceID: 1001152135
!!!NIFC-rismChildID: 1001152135
!!!NIFC-islandoraID: pl-wtm:22894
!!!URL-pdf-islandora: https://repozytorium.nifc.pl/islandora/object/pl-wtm:22894/datastream/PDF/view
!!!URL-scan: https://polish.musicsources.pl/pl/lokalizacje/galeria/druki-muzyczne/17784/2 @EN{Scan on Polish Music Sources Website} @PL{Skany w portalu Dziedzictwo Muzyki Polskiej w otwartym dostępie}
!!!IIIF:
!!!ONB-nifc:
!!!AIN: 2 piano
!!!key: E-
**kern	**kern	**dynam
*part2	*part1	*
*staff2	*staff1	*
*I"PIANO.	*I"PIANO.	*
*I'pf	*I'pf	*
*ICklav	*ICklav	*
*Ipiano	*Ipiano	*
*clefF4	*clefG2	*
*k[b-e-a-]	*k[b-e-a-]	*
*E-:	*E-:	*
*M2/4	*M2/4	*
=1	=1	=1
*	*^	*
!	!LO:TX:a:B:t=Andante espressivo.	!	!
(2EE-/	(4b-/	8r	p
.	.	8B-\ 8e- 8g	.
.	8.g/L	8r	.
.	.	8G\ 8B-	.
.	16e-/Jk	.	.
=2	=2	=2	=2
2E-\)	4Bn~/	8r	.
.	.	8G\ 8e-	.
.	4B~/)	8r	.
.	.	8G\ 8e-	.
=3	=3	=3	=3
(2EE-/	(8c/L	8r	.
.	8e-/	8G\L 8c	.
.	8g/	8c\ 8e-	<
.	8cc/J	8e-\J 8g	[[
=4	=4	=4	=4
8FF/L	4b-/	8c\L 8f	>
8C/	.	8c\ 8f	.
8F/	4a-/)	8c\ 8f	]
8A-/J)	.	8c\J 8f	.
!!LO:LB:g=original	!	!	!
=5	=5	=5	=5
(2D\	(4g/	8r	.
.	.	8Bn\ 8f	.
.	8.a-/L	8r	.
.	.	8B\ 8f	.
.	16g/Jk)	.	.
=6	=6	=6	=6
2D-X\)	8g'/L	8r	.
.	(8g/	8B-X\ 8f	.
.	8a-/	8r	.
.	8b-/J)	8B-\ 8f	.
=7	=7	=7	=7
(2C/	(4.g/	8r	<
.	.	8B-\ 8en	.
.	.	8r	.
.	8cc:/)	8B-:\ 8e:	[[
=8	=8	=8	=8
4FF/)	2cc/	8r	>
.	.	8c\ 8f 8a-	.
(8F\L	.	8r	.
8G\J	.	8c\ 8f 8a-	]
*	*v	*v	*
=9	=9	=9
*^	*	*
2A-\)	8rd	(4cc\	mf
.	4B-/ 4d 4f	.	.
.	.	8.ff\L	.
.	8B-/ 8d 8f	.	.
.	.	16dd\Jk	.
!!LO:LB:g=original	!	!	!
=10	=10	=10	=10
8r	4.G\	4b-\	>
4B-/ 4e- 4g	.	.	.
.	.	4cc\)	]]
8r	(8E-\	.	.
=11	=11	=11	=11
!	!	!LO:TX:b:i:t=m.g.	!
8r	[2D\)	(>4dd/	p
8B->\L 8d> 8g>	.	.	.
8An>\ 8e-> 8f#X>	.	8cc/L	.
8c>\J 8f#> 8an>	.	8ee-/J	.
=12	=12	=12	=12
8B->\L 8d> 8g>	(4.D\]	4dd/	.
8G>\ 8B-> 8d>	.	.	.
8D/J 8G 8B-	.	4g/	.
8D/ 8G	8BB-\)	.	.
*v	*v	*	*
=13	=13	=13
*	*^	*
(4C/	4a-X/	8r	.
.	.	8A-\ 8e-	.
4C-X/	8e-/L	8r	.
.	8f/J	8An\ 8e-	.
=14	=14	=14	=14
2BB-/)	8g/L)	8r	.
.	(8g/	8B-\L 8e-	.
!	!	!	!LO:HP:t=dimin.
.	8qb-/	.	>
.	8a-/	8c\ 8e-	.
.	8g/J	8B-\J 8e-	.
!!LO:LB:g=original	!	!	!
=15	=15	=15	=15
*	*	*^	*
(2BBB-/ 2BB-	4.f/	(2A-\	8e-\L	.
.	.	.	16d\L	.
.	.	.	16c\JJ	.
.	.	.	4d\	.
.	8g/	.	.	.
*	*	*v	*v	*
=16	=16	=16	=16
4EE-/)	4e-/)	8G\L)	.
.	.	(8G\ 8B-	.
4r	4r	8B-\ 8e-	.
.	.	8e-\J) 8g	.
=17	=17	=17	=17
(2EE-/ 2E-	(4b-/	8r	p
.	.	8B-\ 8e- 8g	.
.	8.g/L	8r	.
.	.	8G\ 8B-	.
.	16e-/Jk	.	.
=18	=18	=18	=18
!	!	!	!LO:HP:t=poco a poco cresc.
2DD/) 2D	4Bn~/	8r	<
.	.	8G\ 8f 8g	.
.	4B~/)	8r	.
.	.	8G\ 8f 8g	.
=19	=19	=19	=19
(4CC/ 4C	(8c/L	8r	.
.	8e-/	8G\L 8c	<
4BBB-/ 4BB-	8g/	8c\ 8e-	.
.	8ee-/J	8e-\J 8g	[[
!!LO:LB:g=original	!	!	!
=20	=20	=20	=20
4AAAn/ 4AAn	4dd/	8d\L 8f#X	.
.	.	8d\ 8f#	.
4AAA-X/) 4AA-X	4cc/)	8d\ 8f#	.
.	.	8d\J 8f#	.
=21	=21	=21	=21
*^	*	*	*
8r	[2GGG\ [2GG	(4cc/	8r	.
4E-/ 4G 4c	.	.	4e-\ 4g	.
.	.	8.dd/L	.	.
8G/ 8c 8e-	.	.	8g\ 8cc	.
.	.	16ee-/Jk	.	.
=22	=22	=22	=22	=22
8r	2GGG\] 2GG]	4gg^/)	8r	f
4F^/ 4G 4Bn 4e-	.	.	4f\ 4g 4bn 4ee-	.
.	.	4gg^/	.	.
8F/ 8G 8B 8d	.	.	8f\ 8g 8b 8dd	.
=23	=23	=23	=23	=23
4E-:/	2CC:\	4cc^/	8c\ 8g	.
!	!	!LO:TX:b:i:t=m.d.	!	!
.	.	.	4G\ 4c 4e-	p
4ryy	.	4r	.	.
.	.	.	8E-\ 8G 8c	.
*v	*v	*	*	*
=24	=24	=24	=24
(4BBB-X/ 4BB-X	2r	(8F'\L 8A- 8d-X	.
.	.	8A-'\ 8d- 8f	.
4EE-/)	.	8d-'\ 8g 8cc	>
.	.	8d-'\J) 8g 8b-	]]
!!LO:PB:g=original	!	!	!
=25	=25	=25	=25
*^	*	*	*
8r	2AA-\	(4ee-/	8r	pp
4E-/ 4c	.	.	4e-\ 4a-	.
.	.	8.cc/L	.	.
8E-/ 8c	.	.	8e-\	.
.	.	16a-/Jk	.	.
=26	=26	=26	=26	=26
8r	2C\	4a-/	8r	.
4B-/	.	.	4c\ 4en	.
.	.	4g/)	.	.
8B-/	.	.	8c\ 8e	.
*	*	*v	*v	*
=27	=27	=27	=27
8r	2D-X\	8r	.
4A-/ 4d-X	.	(>8en^/L	<
.	.	8f/	.
8A-/ 8d-	.	8dd-X/J	[[
*v	*v	*	*
=28	=28	=28
*	*^	*
8D-X\	4cc/	8r	mf
(8An^\L	.	8e-X\ 8g-X	.
8B-\	4b-/)	8r	.
8f\J)	.	8d-X\	.
*	*v	*v	*
=29	=29	=29
!	!LO:TX:b:t=cresc._:dur=6eq:ext=ud:problem:text with extention lines	!
8C\ 8A-X	8e-/ 8a-	<
4E-^\ 4c	(8gn\L 8gg	.
.	8a-\ 8aa-	.
8C\ 8A-	8ff\J 8fff	.
!!LO:LB:g=original	!	!
=30	=30	=30
8BB-:\ 8G: 8d-X:	4ee-\) 4gg 4ddd-X 4eee-	.
*	*	*^
!	!	!	!LO:DY:b=2
(8AAn^/L 8An	.	.	f
8BB-/ 8B-	8ff~\L 8ddd- 8fff	.	.
8EE-/J) 8E-	8gg~\J 8ddd- 8eee- 8ggg	[[	.
*	*	*v	*v
=31	=31	=31
*Xbrackettup	*	*
!LO:TUP:a:problem:klamra łukowa	!	!
12AAA-'/ 12AA-	(4aa-\ 4ccc 4eee- 4aaa-	ff
12E-'\L 12A- 12c	.	.
12E-'\J 12A- 12c	.	.
!LO:TUP:a:problem:klamra łukowa	!	!
12A-'\L 12c 12e-	8.ee-\L 8.eee-	.
12A-'\ 12c 12e-	.	.
12A-'\J 12c 12f	.	.
.	16cc\Jk 16ccc	.
=32	=32	=32
!LO:TUP:a:problem:klamra łukowa	!	!
12G-X'\L 12A- 12c 12f	4a-~\ 4aa-	.
12G-'\ 12A- 12c 12f	.	.
12G-'\J 12A- 12c 12f	.	.
!LO:TUP:a:problem:klamra łukowa	!	!
12G-'\L 12A- 12c 12e-	4a-~\) 4aa-	.
12G-'\ 12A- 12c 12e-	.	.
12G-'\J 12A- 12c 12e-	.	.
=33	=33	=33
!LO:TUP:b:problem:klamra łukowa	!	!
12F'\L 12A- 12e-	8r	.
12F'\ 12A- 12e-	.	.
.	(8c\L 8cc	.
12F'\J 12A- 12e-	.	.
!LO:TUP:a:problem:klamra łukowa	!	!
12F'\L 12A- 12d-X	8d-X\ 8dd-X	.
12F'\ 12A- 12d-	.	.
.	8b-\J 8bb-	.
12F'\J 12A- 12d-	.	.
!!LO:LB:g=original	!	!
=34	=34	=34
!LO:TUP:a:problem:klamra łukowa	!	!
12E-'\L 12A- 12d-X	4a-\ 4aa-	.
12E-'\ 12A- 12d-	.	.
12E-'\J 12A- 12d-	.	.
!LO:TUP:a:problem:klamra łukowa	!	!
12E-'\L 12A- 12c	4g-X\) 4gg-X	.
12E-'\ 12A- 12c	.	.
12E-'\J 12A- 12c	.	.
=35	=35	=35
!LO:TUP:a:problem:klamra łukowa	!LO:TX:b:i:t=agitato	!
12D-X'\L	(4f\ 4ff	.
12A-'\ 12d-X	.	.
12A-'\J 12d-	.	.
!LO:TUP:a:problem:klamra łukowa	!	!
12C-X'\L	8.g-X\L 8.gg-X	.
12A-'\ 12d-	.	.
12A-'\J 12d-	.	.
.	16f\Jk) 16ff	.
=36	=36	=36
!LO:TUP:a:problem:klamra łukowa	!	!
12BB-/	(8f\L 8ff	.
[6A-\ [6dn	.	.
.	8f\ 8ff	.
!LO:TUP:a	!	!
12A-\L] 12d]	8.b-\ 8.bb-	.
(12A-\ 12d	.	.
12BB-\J)	.	.
.	16f\Jk) 16ff	.
=37	=37	=37
!LO:TX:b:i:t=m.g.	!	!
N(32EE-^\LLL	8g-X\ 8b- 8ee- 8gg-X	.
32GG-X\	.	.
32BB-\	.	.
32C-X\JJJ	.	.
!	!LO:TX:b:i:t=m.d.	!
8ryy	32E-</LLL	.
.	32G-X</	.
.	32B-</	.
.	32c-X</JJJN)	.
!LO:TX:b:i:t=m.g.	!	!
N(32E-\LLL	8ryy	.
32G-X\	.	.
32B-\	.	.
32c-X\JJJ	.	.
!	!LO:TX:a:i:t=m.d.	!
8ryy	32e-/LLL	.
.	32g-/	.
.	32b-/	.
.	32cc-X/JJJN)	.
!!LO:LB:g=original	!	!
=38	=38	=38
!LO:TX:a:i:t=m.g.	!	!
N(32e->^\LLL	8ryy	.
32g-X>\	.	.
32b->\	.	.
32cc-X>\JJJ	.	.
!	!LO:TX:a:i:t=m.d.	!
8ryy	32ee-/LLL	.
.	32gg-X/	.
.	32bb-/	.
.	32ccc-X/JJJN)	.
*8va	*	*
!LO:TX:a:i:t=m.g.	!	!
N(32ee->^\LLL	8ryy	.
32gg-X>\	.	.
32bb->\	.	.
32ccc-X>\JJJ	.	.
*X8va	*8va	*
!	!LO:TX:a:i:t=m.d.	!
8ryy	32eee-/LLL	.
.	32ggg-X/	.
.	32bbb-/	.
.	32cccc-X/JJJN)	.
*	*X8va	*
=39	=39	=39
!LO:TUP:a:problem:klamra łukowa	!	!
12C/	(8gn\L 8ggn	.
[6B-\ [6en	.	.
.	8g\ 8gg	.
!LO:TUP:a	!	!
12B-\L] 12e]	8.cc\ 8.ccc	.
(12B-\ 12e	.	.
12C\J)	.	.
.	16g\Jk) 16gg	.
=40	=40	=40
!LO:TUP:a:problem:klamra łukowa	!	!
!LO:TX:b:i:t=m.g.	!	!
N(24FF^\LL	8a-\ 8cc 8ff 8aa-	.
24C\	.	.
24F\JJ	.	.
!	!LO:TX:a:i:t=m.d.	!
8ryy	32A-/LLL	.
.	32c/	.
.	32en/	.
.	32f/JJJN)	.
!LO:TUP:a:problem:klamra łukowa	!	!
!LO:TX:b:i:t=m.g.	!	!
N(24F^\LL	8ryy	.
24c\	.	.
24f\JJ	.	.
!	!LO:TX:a:i:t=m.d.	!
8ryy	32a-/LLL	.
.	32cc/	.
.	32een/	.
.	32ff/JJJN)	.
!!LO:LB:g=original	!	!
=41	=41	=41
!LO:TUP:a:problem:klamra łukowa	!	!
!LO:TX:a:i:t=m.g.	!	!
N(24f>^\LL	8ryy	.
24cc>\	.	.
24ff>\JJ	.	.
!	!LO:TX:a:i:t=m.d.	!
8ryy	32aa-/LLL	.
.	32ccc/	.
.	32eeen/	.
.	32fff/JJJN)	.
*8va	*	*
!LO:TUP:a:problem:klamra łukowa	!	!
!LO:TX:a:i:t=m.g.	!	!
N(24ff>^\LL	8ryy	.
24ccc>\	.	.
24fff>\JJ	.	.
*X8va	*8va	*
!	!LO:TX:a:i:t=m.d.	!
8ryy	32aaa-/LLL	.
.	32cccc/	.
.	32eeeen/	.
.	32ffff/JJJN)	.
*	*X8va	*
=42	=42	=42
!	!LO:TX:a:i:t=con passione e pesante	!
(>8qqBBB-/	.	.
!LO:TUP:a:problem:klamra łukowa	!	!
12BB-'\L)	4cc^\ 4ccc	ff
12A-'\ 12c 12f	.	.
12A-'\J 12c 12f	.	.
!LO:TUP:a:problem:klamra łukowa	!	!
12A-'\L 12c 12f	4cc^\ 4ccc	.
12A-'\ 12c 12f	.	.
12A-'\J 12c 12f	.	.
=43	=43	=43
!LO:TUP:a:problem:klamra łukowa	!	!
12A-'\L 12B- 12d	(4.ff\ 4.fff	.
12A-'\ 12B- 12d	.	.
12A-'\J 12B- 12d	.	.
!LO:TUP:a:problem:klamra łukowa	!	!
12B-'\L 12d 12a-	.	.
12B-'\ 12d 12a-	.	.
.	8dd\) 8ddd	.
12B-'\J 12d 12a-	.	.
!!LO:PB:g=original	!	!
=44	=44	=44
!LO:TUP:a:problem:klamra łukowa	!	!
12E-'\L 12e-	8cc~\L 8ccc	.
12B-'\ 12g	.	.
.	8ee-~\ 8eee-	.
12B-'\J 12g	.	.
!LO:TUP:a:problem:klamra łukowa	!	!
12F'\L 12d	8dd~\ 8ddd	.
12B-'\ 12a-	.	.
.	8a-~\J 8aa-	.
12B-'\J 12a-	.	.
=45	=45	=45
!LO:TX:b:i:t=calando	!	!
!LO:TUP:a:problem:klamra łukowa	!	!
12E-'\L 12c	8g~\L 8gg	.
12G'\ 12e-	.	.
!	!	!LO:HP:a
.	8cc~\ 8ccc	>
12G'\J 12e-	.	.
!LO:TUP:a:problem:klamra łukowa	!	!
12D'\L 12B-	8b-~\ 8bb-	.
12F'\ 12d	.	.
.	8f~\J 8ff	]]
12F'\J 12d	.	.
=46	=46	=46
!LO:TUP:a:problem:klamra łukowa	!	!
12C'\L	(8e-\L 8ee-	.
12A-'\ 12e-	.	.
.	[8a-\J [8aa-	.
12A-'\J 12e-	.	.
*	*Xbrackettup	*
!LO:TUP:a	!LO:TUP:a:problem:klamra łukowa	!
24C:\ 24A-: 24e-:	(24a-\]) 24aa-]	.
24r;	24r;	.
!LO:TX:a:i:t=tranquillo	!LO:TX:a:i:t=espress.	!
.	8qg/	p
12r	12gg\L	.
12r	12ee-\J)	.
=47	=47	=47
*^	*^	*
!LO:TUP:b:problem:klamra łukowa	!	!LO:TUP:a:problem:klamra łukowa	!	!
12r	[2BBB-\ [2BB-	[2ff/	12r	p
12A-/L 12c 12f	.	.	12a-'\L 12cc 12ee-	.
12A-/J 12c 12f	.	.	12a-'\J 12cc 12ee-	.
!LO:TUP:b:problem:klamra łukowa	!	!LO:TUP:a:problem:klamra łukowa	!	!
12c/L 12f 12a-	.	.	12cc'\L 12ee-	.
12c/ 12f 12a-	.	.	12cc'\ 12ee-	.
12c/J 12f 12a-	.	.	12cc'\J 12ee-	.
*clefG2	*	*	*	*
!!LO:LB:g=original	!	!	!	!
=48	=48	=48	=48	=48
!LO:TX:t=P:problem:klucz basowy dla drugiej warstwy	!	!	!	!
!LO:TUP:a:problem:klamra łukowa	!	!LO:TUP:a:problem:klamra łukowa	!	!
12f'/L 12a- 12cc	2BBB-\_ 2BB-_	4ff/]	12ee-'\L	.
12f'/ 12a- 12cc	.	.	12ee-'\	.
12f'/J 12a- 12cc	.	.	12ee-'\J	.
!LO:TUP:a:problem:klamra łukowa	!	!	!	!LO:HP:t=dim.
.	.	(8qgg/	.	>
12a-'/L 12cc 12ee-	.	(8ggg^\L)	4ryy	.
12a-'/ 12cc 12ee-	.	.	.	.
.	.	8eee-\J)	.	.
12a-'/J 12cc 12ee-	.	.	.	.
=49	=49	=49	=49	=49
!LO:TUP:b:problem:klamra łukowa	!	!LO:TUP:b:problem:klamra łukowa	!	!
12cc'/L 12ee- 12ff	2BBB-\_ 2BB-_	[2fff/	12r	.
12cc'/ 12ee- 12ff	.	.	12aa-'\L 12ccc 12eee-	.
12cc'/J 12ee- 12ff	.	.	12aa-'\J 12ccc 12eee-	.
!LO:TUP:b:problem:klamra łukowa	!	!LO:TUP:b:problem:klamra łukowa	!	!
12ee-'/L 12ff 12aa-	.	.	12ccc'\L 12eee-	.
12ee-'/ 12ff 12aa-	.	.	12ccc'\ 12eee-	.
12ee-'/J 12ff 12aa-	.	.	12ccc'\J 12eee-	.
=50	=50	=50	=50	=50
!LO:TUP:b:problem:klamra łukowa	!	!LO:TUP:b:problem:klamra łukowa	!	!
12ff'/L 12aa- 12ccc	4BBB-\] 4BB-]	4fff/]	12eee-'\L	.
12ff'/ 12aa- 12ccc	.	.	12eee-'\	.
12ff'/J 12aa- 12ccc	.	.	12eee-'\J	.
*v	*v	*	*	*
*	*v	*v	*
*	*8va	*
*^	*^	*
8gg^\L	4ryy	8ggg^\L 8gggg	4ryy	<
8ee-\J	.	8eee-\J 8eeee-	.	[ >
*v	*v	*	*	*
*	*v	*v	*
=51	=51	=51
8ff\L	8fff\L 8ffff	.
*	*X8va	*
8f^\	8ff^\ 8fff	] <
8g\	8gg\ 8ggg	.
8e-\J	8ee-\J 8eee-	[ >
=52	=52	=52
!	!LO:TX:b:i:t=molto rit.	!
8f/	8ff\ 8fff	]
*clefF4	*	*
(8F\L	(8f\L 8ff	.
8G\J)	8g\J) 8gg	.
8BB-:\ 8A-: 8d:	8b-:\ 8dd: 8bb-:	.
!!LO:LB:g=original	!	!
=53||	=53||	=53||
.	(16qqb-/LL	p
!	!LO:TX:a:B:t=Tempo I.	!
.	16qqee-/JJ	.
16EE-'\LL	(4bb-\)	.
16G'\ 16e-	.	.
(16G\ 16e-	.	.
16B-\JJ) 16g	.	.
(16B-\LL 16g	8.gg\L	.
16G\) 16e-	.	.
(16G\ 16e-	.	.
16B-\JJ) 16g	16ee-\Jk	.
=54	=54	=54
16EE-'\LL	4bn~\	.
16G'\ 16e-	.	.
(16G\ 16e-	.	.
16Bn\JJ) 16g	.	.
(16B\LL 16g	4b~\)	.
16G\) 16e-	.	.
(16G\ 16e-	.	.
16B\JJ) 16g	.	.
=55	=55	=55
16EE-'\LL	(8cc\L	.
16G'\ 16e-	.	.
(16G\ 16e-	8ee-\	.
16c\JJ) 16g	.	.
(16c\LL 16g	8gg\	.
16G\) 16e-	.	.
(16G\ 16e-	8ccc\J	.
16c\JJ) 16g	.	.
=56	=56	=56
16FF'\LL	4bb-\	.
16A-'\ 16f	.	.
(16A-\ 16f	.	.
16c\JJ) 16a-	.	.
(16c\LL 16a-	4aa-\)	.
16A-\) 16f	.	.
(16A-\ 16f	.	.
16c\JJ) 16a-	.	.
!!LO:LB:g=original	!	!
=57	=57	=57
*	*^	*
16DD'\LL	(4g/ 4gg	16r	.
16G'\ 16Bn 16f	.	16dd'\LL 16ff	.
16G'\ 16B 16f	.	16dd'\ 16ff	.
16G'\JJ 16B 16f	.	16dd'\JJ 16ff	.
16B'\LL 16f	8.a-/L 8.aa-	16r	.
16B'\ 16f	.	16dd'\LL 16ff	.
16B'\ 16f	.	16dd'\JJ 16ff	.
16B'\JJ 16f	16g/Jk) 16gg	16r	.
=58	=58	=58	=58
16DD-X'\LL	8g/L 8gg	16r	.
16B-'\ 16d-X 16f	.	16dd-X\ 16ff	.
16B-'\ 16d- 16f	(8g/ 8gg	16r	.
16B-'\JJ 16d- 16f	.	16dd-\ 16ff	.
16B-'\LL 16d- 16f	8a-/ 8aa-	16r	.
16B-'\ 16d- 16f	.	16dd-\ 16ff	.
16B-'\ 16d- 16f	8b-/J) 8bb-	16r	.
16B-'\JJ 16d- 16f	.	16dd-\ 16ff	.
=59	=59	=59	=59
.	8qg/	.	.
16CC'\LL	(4.gg/	16r	.
16B-'\ 16en	.	16cc'\LL 16een	.
(16B-\ 16e	.	16cc'\ 16ee	.
16c\JJ) 16g	.	16cc'\JJ 16ee	.
(16c\LL 16g	.	16cc'\LL 16ee	.
16B-\) 16e	.	16cc'\JJ 16ee	.
(16B-\ 16e	8cc/) 8ccc	16r	.
16c\JJ) 16g	.	16ee\	.
=60	=60	=60	=60
(>8qFFF/	(8qcc/	.	.
16FF'\LL)	2ccc/)	16r	.
16A-'\ 16c 16en	.	16cc'\LL 16een	.
(16A-\ 16c 16e	.	(16cc\ 16ee	.
16A-\JJ) 16c 16f	.	16cc\JJ) 16ff	.
(16A-\LL 16c 16a-	.	(16cc\LL 16aa-	.
16A-\) 16c 16g	.	16cc\) 16gg	.
(16A-\ 16c 16g	.	(16cc\ 16gg	.
16A-\JJ) 16c 16f	.	16cc\JJ) 16ff	.
!!LO:LB:g=original	!	!	!
=61	=61	=61	=61
(>8qBBB-/	.	.	.
16BB-'\LL)	(4cc/ 4ccc	16r	.
16A-'\ 16c 16f	.	16ff'\LL 16aa-	.
16A-'\ 16c 16f	.	16ff'\ 16aa-	.
16A-'\JJ 16c 16f	.	16ff'\JJ 16aa-	.
16B-'\LL 16d 16a-	8.ff/L 8.fff	16r	.
16B-'\ 16d 16a-	.	16bb-'\LL 16ddd	.
16B-'\ 16d 16a-	.	16bb-'\JJ 16ddd	.
16B-'\JJ 16d 16a-	16dd/Jk 16ddd	16r	.
=62	=62	=62	=62
(16G\LL 16e-	4b-/ 4bb-	16r	.
16B-\) 16g	.	16ee-'\LL 16gg	.
(16B-\ 16g	.	16ee-'\ 16gg	.
16G\JJ) 16e-	.	16ee-'\JJ 16gg	.
(16E-\LL 16c	4cc/) 4ccc	16r	.
16G\) 16e-	.	16ee-'\LL 16gg	.
(16G\ 16e-	.	16ee-'\ 16gg	.
16E-\JJ) 16c	.	16ee-'\JJ 16gg	.
=63	=63	=63	=63
16D'\LL	(4dd/ 4ddd	16r	.
16B-'\ 16d 16g	.	16gg'\LL 16bb-	.
16B-'\ 16d 16g	.	16gg'\ 16bb-	.
16B-'\JJ 16d 16g	.	16gg'\JJ 16bb-	.
16An'\LL 16f#X	8cc/L 8ccc	16r	.
16A'\ 16f#	.	16ff#X\ 16aan	.
16c'\ 16a-	8ee-/J 8eee-	16r	.
16c'\JJ 16a-	.	16ff#\ 16aa	.
=64	=64	=64	=64
16B-'\LL 16d 16g	4dd/ 4ddd	16r	.
16B-'\ 16d 16g	.	16gg'\LL 16bb-	.
16B-'\ 16d 16g	.	16gg'\ 16bb-	.
16B-'\JJ 16d 16g	.	16gg'\JJ 16bb-	.
16G'\LL 16B- 16d	4g/) 4gg	16r	.
16G'\ 16B- 16d	.	16b-'\LL 16dd	.
16G'\ 16B- 16d	.	16b-'\ 16dd	.
16G'\JJ 16B- 16d	.	16b-'\JJ 16dd	.
!!LO:PB:g=original	!	!	!
=65	=65	=65	=65
.	(8qa-/	.	.
16C'\LL	(4aa-/)	16r	.
16A-'\ 16e-	.	16a-'\LL 16ee-	.
16A-'\ 16e-	.	16a-'\ 16ee-	.
16A-'\JJ 16e-	.	16a-'\JJ 16ee-	.
16r	8.ee-/L)	16r	.
16C'\LL 16A-	.	16e-\LL 16a-	.
16C'\ 16A-	.	16e-\JJ 16a-	.
16C'\JJ 16A-	16e-/Jk 16ee-	16r	<
=66	=66	=66	=66
.	(8qen/	.	.
16BBn\LL	2een/)	16r	.
16En'\ 16G#X 16d	.	16eny'\LL 16g# 16dd	.
16E'\ 16G# 16d	.	16e'\ 16g# 16dd	.
16G#'\JJ 16d 16en	.	16bn'\JJ 16dd	.
16G#'\LL 16d 16e	.	16b'\LL 16dd	.
16B-'\ 16e 16g#X	.	16b'\ 16dd	.
16B-'\ 16e 16g#	.	16b'\ 16dd	.
16d'\JJ 16g#	.	16b'\JJ 16dd	.
=67	=67	=67	=67
16r	(4bn/ 4bbn	16r	.
16d'\LL 16en 16g#X	.	16een'\LL 16gg#X	.
16d'\ 16e 16g#	.	16ee'\ 16gg#	.
16d'\JJ 16e 16g#	.	16ee'\JJ 16gg#	.
16r	8.en/L) 8.ee	16r	.
16G#X'\LL 16d	.	16b\LL 16dd	.
16G#'\ 16d	.	16b\JJ 16dd	.
16G#'\JJ 16d	16e/Jk 16ee	16r	.
=68	=68	=68	=68
(>8qCC/	(8qf/	.	.
16C'\LL)	2ff/)	16r	.
16F'\ 16An 16e-	.	16f'\LL 16cc 16ee-X	.
16F'\ 16A 16e-	.	16f'\ 16cc 16ee-	.
16A'\JJ 16e- 16f	.	16f'\JJ 16cc 16ee-	.
*clefG2	*	*	*
16A'/LL 16e- 16f	.	16cc'\LL 16ee-	.
16c'/ 16f 16an	.	16cc'\ 16ee-	.
16c'/ 16f 16a	.	16cc'\ 16ee-	.
16f'/JJ 16a	.	16cc'\JJ 16ee-	.
!!LO:LB:g=original	!	!	!
=69	=69	=69	=69
16r	(4ff/ 4fff	16r	<
16f'/LL 16an 16ee-	.	16aan'\LL 16ccc	.
16f'/ 16a 16ee-	.	16aa'\ 16ccc	.
16f'/JJ 16a 16ee-	.	16aa'\JJ 16ccc	.
16r	8.cc/L) 8.ccc	16r	.
16e-'/LL 16a	.	16ff\LL 16aa	.
16e-'/ 16a	.	16ff\JJ 16aa	.
16f'/JJ 16cc	16ee-/Jk 16eee-	16ryy	[[
*clefF4	*	*	*
=70	=70	=70	=70
16BBB-'\LL 16BB-	(8ee-/L 8eee-	16r	ff
16A-X'\ 16B- 16d	.	16aa-\ 16bb-	.
16A-'\ 16B- 16d	8dd/ 8ddd	16r	.
16A-'\JJ 16B- 16d	.	16aa-\ 16bb-	.
16B-'\LL 16d 16a-	8cc/ 8ccc	16r	.
16B-'\ 16d 16a-	.	16aa-\ 16bb-	.
16B-'\ 16d 16a-	8b-/J) 8bb-	16r	.
16B-'\JJ 16d 16a-	.	16ff\ 16aa-	.
=71	=71	=71	=71
16G'\LL 16d-X 16en	(4dd-X/ 4ddd-X	16r	.
16G'\ 16d- 16e	.	16een'\LL 16gg	.
16G'\ 16d- 16e	.	16ee'\ 16gg	.
16G'\JJ 16d- 16e	.	16ee'\JJ 16gg	.
16r	4g/) 4gg	16r	.
16BBB-'/LL 16BB-	.	16dd-'\LL 16ee	.
16BBB-'/ 16BB-	.	16dd-'\ 16ee	.
16BBB-'/JJ 16BB-	.	16dd-'\JJ 16ee	.
=72	=72	=72	=72
16BBB-'\LL 16BB-	(8b-/L 8bb-	16r	.
16A-'\ 16c 16f	.	16cc\	.
16A-'\ 16c 16f	8a-/ 8aa-	16r	.
16A-'\JJ 16c 16f	.	16cc\	.
16c'\LL 16a-	8g/ 8gg	16r	.
16c'\ 16a-	.	16cc\	.
16c'\ 16a-	8f/J) 8ff	16r	.
16c'\JJ 16a-	.	16cc\	.
!!LO:LB:g=original	!	!	!
=73	=73	=73	=73
(8c\L	(8ee-/L	16r	.
.	.	16e-\ 16a-	.
8A-\	8cc/	16r	.
.	.	16e-\ 16a-	.
8G\	8b-/	16r	>
.	.	16e-\	.
8F\J)	8a-/J)	16r	.
.	.	16e-\	]]
=74	=74	=74	=74
!	!	!LO:TX:b:t=poco a poco dim. e rit._:dur=4h:ext=ud:problem:text with extention lines	!
4r	[2cc-X/	16r	>
.	.	16e-\ 16f 16a-	.
.	.	16r	.
.	.	16e-\ 16f 16a-	.
!LO:TX:b:i:t=espress.	!	!	!
(4F\	.	16r	.
.	.	16e-\ 16f 16a-	.
.	.	16r	.
.	.	16e-\ 16f 16a-	.
=75	=75	=75	=75
8En\L	2cc-/]	16r	.
.	.	16e-\ 16f 16a-	.
8F\	.	16r	.
.	.	16e-\ 16f 16a-	.
8A-\	.	16r	.
.	.	16e-\ 16f 16a-	.
8c-X\J)	.	16r	.
.	.	16e-\ 16f 16a-	.
=76	=76	=76	=76
4r	[2b-/	16r	.
.	.	16e-\ 16f 16a-	.
.	.	16r	.
.	.	16e-\ 16f 16a-	.
(4F\	.	16r	.
.	.	16e-\ 16f 16a-	.
.	.	16r	.
.	.	16e-\ 16f 16a-	.
!!LO:LB:g=original	!	!	!
=77	=77	=77	=77
*^	*	*	*
8En/L	2BB-\	2b-/]	16r	.
.	.	.	16d\ 16a-	.
8F/	.	.	16r	.
.	.	.	16d\ 16a-	.
8A-/	.	.	16r	.
.	.	.	16d\ 16f	.
8G/J)	.	.	16r	.
.	.	.	16d\ 16f	]]
*v	*v	*	*	*
=78	=78	=78	=78
!	!LO:TX:a:i:t=a tempo	!	!
(8EE-X/L	(4ee-/	16r	p
.	.	8e-\L 8g 8b-	.
8BB-/	.	.	.
.	.	16e-\Jk 16g 16b-	.
8E-/	8.b-/L	16r	.
.	.	8B-\L 8e-	.
8BB-/J)	.	.	.
.	16g/Jk	16B-\Jk 16e-	.
=79	=79	=79	=79
(8EE-X/L	4en~/	16r	.
.	.	8G\L 8B- 8d-X	.
8BB-/	.	.	.
.	.	16G\Jk 16B- 16d-	.
8D-X/	4e/)	16r	.
.	.	8G\L 8B- 8d-	.
8BB-/J)	.	.	.
.	.	16G\Jk 16B- 16d-	.
=80	=80	=80	=80
!	!	!	!LO:HP:a
(8EE-X/L	(8en/L	16r	<
.	.	16A-\ 16c	.
8C/	8f/	16r	.
.	.	16A-\ 16c	.
8F/	8g/	16r	.
.	.	16c\ 16f	.
8C/J)	8a-/J	16r	.
.	.	16c\ 16f	[
!!LO:LB:g=original	!	!	!
=81	=81	=81	=81
!	!	!	!LO:HP:a
(8EE-/L	2cc/)	16r	>
.	.	8c\L 8f 8a-	.
8C/	.	.	.
.	.	16c\Jk 16f 16a-	.
8F/	.	16r	]
.	.	8c\L 8f 8a-	.
8C/J)	.	.	.
.	.	16c\Jk 16f 16a-	.
=82	=82	=82	=82
*^	*	*	*
8r	2EE-\	(4cc-X/	16r	pp
.	.	.	8c-X\L 8f-X 8a-	.
4C-X/	.	.	.	.
.	.	.	16c-\Jk 16f- 16a-	.
.	.	8.a-/L	16r	.
.	.	.	8A-\L 8c-	.
8C-/	.	.	.	.
!	!	!LO:TX:b:i:t=poco rit.	!	!
.	.	16fn/Jk	16A-\Jk 16c-	.
*v	*v	*	*	*
=83	=83	=83	=83
(8BBB-/	4d/ 4gn	(16A-\KL	.
.	.	8B-\	.
4BB-/	.	.	.
.	.	16A-\Jk)	.
.	4d/) 4f	(16A-\KL	.
.	.	8B-\	.
8BBB-/)	.	.	.
.	.	16A-\Jk)	.
=84	=84	=84	=84
!	!LO:TX:a:i:t=a tempo	!	!
8EEE-/ 8EE-	8G/L 8B- 8e-	4ryy	.
(16F#X\LL	(>(16An/L	.	pp
16G\JJ)	16B-/JJ)	.	.
(8.G\L	(16B-/LL	8.B-\L	.
.	16e-/)	.	.
.	(16e-/	.	.
16BB-\Jk) 16A-X	16f#X/JJ)	16d\Jk	.
!!LO:LB:g=original	!	!	!
=85	=85	=85	=85
8EE-/ 8BB-	8G/L) 8e- 8g	4ryy	.
*clefG2	*	*	*
!	!LO:TX:b:i:t=rallen. al Fine.	!	!
(16f#X/LL	((>16an/L	.	.
16g/JJ)	16b-/JJ)	.	.
(>8.g/L	(16b-/LL	8.b-\L	.
.	16ee-/)	.	.
.	(16ee-/	.	.
16B-/Jk) 16a-X	16ff#X/JJ)	16dd\Jk	.
*	*v	*v	*
*clefF4	*	*
=86	=86	=86
8E-\L 8B-	8g\L) 8ee- 8gg	.
*clefG2	*	*
(16ff#X\L	((16aan\L	.
16gg\JJ)	16bb-\JJ)	.
(8.gg\L	(16bb-\LL	.
.	16eee-\)	.
.	(16eee-\	.
16b-\Jk) 16aa-X	16ddd\JJ) 16fff#X	.
=87	=87	=87
8.e-/ 8.b-	8.gg\) 8.eee- 8.ggg	.
16r	16r	.
!	!LO:TX:b:i:t=espress.	!
4r	(8g/L	.
.	8e-/J)	.
*clefF4	*	*
=88	=88	=88
*^	*	*
!	!	!LO:TX:a:i:t=m.g.	!
2ff>::/	2BB-::\ 2F:: 2A-::	2c::\ 2e-:: 2f:: 2a-::	ppp
=89	=89	=89	=89
!	!	!LO:TX:a:i:t=m.g.	!
2bb->::/	2BB-::\ 2F:: 2A-::	2d::\ 2f:: 2a-:: 2b-::	.
=90	=90	=90	=90
!	!	!LO:TX:a:i:t=m.g.	!
2ggg>::/	2EE-::/ 2BB-:: 2E-::	2G::\ 2B-:: 2e-:: 2g::	.
*v	*v	*	*
==	==	==
*-	*-	*-
!!!system-decoration: {(s1,s2)}
!!!RDF**kern: > = above
!!!RDF**kern: < = below
!!!RDF**kern: N = linked
!!!ENC: Filip Voros
!!!END: 2022-11-30
!!!ENC: Natalia Wrzos
!!!END: 2022-12-08
